Hatter-kde-dark/actions/32/system-reboot.svg

<svg version="1.1" viewBox="0 0 32 32" xmlns="http://www.w3.org/2000/svg">
    <defs>
        <style type="text/css" id="current-color-scheme">
            .ColorScheme-Text {
                color:#dedede;
            }
        </style>
    </defs>
    <path style="fill:currentColor;fill-opacity:1;stroke:none"
          class="ColorScheme-Text"
          d="M 4,16 A 12,12 0 0 1 5.671875,9.916016 L 11.050781,15.292969 10.339844,16 5.935547,11.595703 A 11,11 0 0 0 5,16 11,11 0 0 0 16,27 11,11 0 0 0 21.351562,25.595703 l 0.728516,0.732422 A 12,12 0 0 1 16,28 12,12 0 0 1 4,16 Z M 9.916016,5.671875 A 12,12 0 0 1 16,4 12,12 0 0 1 28,16 12,12 0 0 1 26.328125,22.083984 L 20.949219,16.707031 21.65625,16 26.060547,20.40625 A 11,11 0 0 0 27,16 11,11 0 0 0 16,5 11,11 0 0 0 10.648438,6.404297 Z"
    />
</svg>

<?xml version="1.0" encoding="UTF-8"?>
<svg version="1.1" viewBox="0 0 32 32" xmlns="http://www.w3.org/2000/svg">
 <defs>
  <style id="current-color-scheme" type="text/css">.ColorScheme-Text {
                color:#dedede;
            }</style>
 </defs>
 <path class="ColorScheme-Text" d="m4 16a12 12 0 0 1 1.6719-6.084l5.3789 5.377-0.71094 0.70703-4.4043-4.4043a11 11 0 0 0-0.93555 4.4043 11 11 0 0 0 11 11 11 11 0 0 0 5.3516-1.4043l0.72852 0.73242a12 12 0 0 1-6.0801 1.6719 12 12 0 0 1-12-12zm5.916-10.328a12 12 0 0 1 6.084-1.6719 12 12 0 0 1 12 12 12 12 0 0 1-1.6719 6.084l-5.3789-5.377 0.70703-0.70703 4.4043 4.4062a11 11 0 0 0 0.93945-4.4062 11 11 0 0 0-11-11 11 11 0 0 0-5.3516 1.4043z" fill="currentColor"/>
</svg>
